brandFactory_export/2.Regular/Veneno _2Regular.svg

<?xml version="1.0" encoding="UTF-8"?>
<svg width="24px" height="24px" viewBox="0 0 24 24" version="1.1" xmlns="http://www.w3.org/2000/svg" xmlns:xlink="http://www.w3.org/1999/xlink">
    <title>2.Regular/Veneno _2Regular</title>
    <g id="Symbols" stroke="none" stroke-width="1" fill="none" fill-rule="evenodd">
        <g id="2.Regular/Veneno-_2Regular" fill="#5CB615" fill-rule="nonzero">
            <path d="M15.2268908,22.1848739 C16.6722689,22.1848739 17.6033613,21.6470588 18.0336134,20.6084034 L5.7210084,20.6084034 C5.85210084,20.9277311 6.02352941,21.2067227 6.2487395,21.4285714 C6.7697479,21.9327731 7.5394958,22.1882353 8.54453782,22.1882353 L15.2268908,22.1882353 L15.2268908,22.1848739 Z M7.52605042,1.70420168 L7.52605042,5.21344538 C7.52605042,5.36134454 7.64369748,5.48235294 7.79159664,5.48235294 L15.8823529,5.48235294 C16.0302521,5.48235294 16.1478992,5.36134454 16.1478992,5.21344538 L16.1478992,1.70420168 C16.1478992,1.55630252 16.0302521,1.43865546 15.8823529,1.43865546 L7.79159664,1.43865546 C7.64705882,1.43865546 7.52605042,1.55966387 7.52605042,1.70420168 Z M18.2285714,8.61176471 C18.0403361,7.65714286 17.5394958,7.01176471 16.7294118,6.68907563 C16.4806723,6.83361345 16.1915966,6.92436975 15.8823529,6.92436975 L7.79159664,6.92436975 C7.50588235,6.92436975 7.23697479,6.84705882 7.00168067,6.71932773 C6.71932773,6.84033613 6.4605042,6.98823529 6.25210084,7.18655462 C5.88907563,7.53613445 5.65714286,8.02352941 5.53613445,8.61176471 L18.2285714,8.61176471 Z M5.43865546,19.0588235 C5.43865546,19.0957983 5.44537815,19.1294118 5.44537815,19.1697479 L18.302521,19.1697479 C18.302521,19.1327731 18.3092437,19.0991597 18.3092437,19.0621849 L18.3193277,10.0537815 L5.43865546,10.0537815 L5.43865546,19.0588235 Z M17.5596639,5.47226891 C18.9815126,6.17142857 19.7546218,7.59327731 19.7546218,9.54957983 L19.7445378,19.0588235 C19.7445378,21.9159664 18.0537815,23.6235294 15.2268908,23.6235294 L8.54789916,23.6235294 C7.15630252,23.6235294 6.05042017,23.2336134 5.25378151,22.4605042 C4.42689076,21.6571429 4.00672269,20.5142857 4.00672269,19.0588235 L4.00672269,9.54957983 C4.00672269,8.09411765 4.42689076,6.9512605 5.26386555,6.14789916 C5.51596639,5.90252101 5.81176471,5.70756303 6.12773109,5.5394958 C6.10756303,5.43529412 6.09411765,5.32773109 6.09411765,5.21680672 L6.09411765,1.70756303 C6.09411765,0.766386555 6.85714286,0.00336134454 7.79495798,0.00336134454 L15.8857143,0.00336134454 C16.8235294,0.00336134454 17.5865546,0.769747899 17.5865546,1.70756303 L17.5865546,5.21680672 C17.5865546,5.30420168 17.5731092,5.38823529 17.5596639,5.47226891 Z M8.76638655,4.81680672 C8.3697479,4.81680672 8.05042017,4.49411765 8.05042017,4.09747899 L8.05042017,2.84705882 C8.05042017,2.45042017 8.37310924,2.12773109 8.76638655,2.12773109 C9.15966387,2.12773109 9.48235294,2.45042017 9.48235294,2.84705882 L9.48235294,4.09747899 C9.48571429,4.49411765 9.16302521,4.81680672 8.76638655,4.81680672 Z M10.8168067,4.81680672 C10.4201681,4.81680672 10.1008403,4.49411765 10.1008403,4.09747899 L10.1008403,2.84705882 C10.1008403,2.45042017 10.4235294,2.12773109 10.8168067,2.12773109 C11.2134454,2.12773109 11.5327731,2.45042017 11.5327731,2.84705882 L11.5327731,4.09747899 C11.5327731,4.49411765 11.2134454,4.81680672 10.8168067,4.81680672 Z M12.8638655,4.81680672 C12.4672269,4.81680672 12.1478992,4.49411765 12.1478992,4.09747899 L12.1478992,2.84705882 C12.1478992,2.45042017 12.4705882,2.12773109 12.8638655,2.12773109 C13.2571429,2.12773109 13.5798319,2.45042017 13.5798319,2.84705882 L13.5798319,4.09747899 C13.5831933,4.49411765 13.2605042,4.81680672 12.8638655,4.81680672 Z M14.9109244,4.81680672 C14.5142857,4.81680672 14.194958,4.49411765 14.194958,4.09747899 L14.194958,2.84705882 C14.194958,2.45042017 14.5176471,2.12773109 14.9109244,2.12773109 C15.307563,2.12773109 15.6268908,2.45042017 15.6268908,2.84705882 L15.6268908,4.09747899 C15.6302521,4.49411765 15.307563,4.81680672 14.9109244,4.81680672 Z M13.6504202,16.8067227 C14.4302521,16.3226891 14.8268908,15.4789916 14.8268908,14.302521 C14.8268908,11.6773109 12.8504202,11.3478992 12.0033613,11.3277311 C11.9058824,11.3243697 11.8016807,11.3243697 11.7042017,11.3243697 L11.687395,11.3243697 C10.8537815,11.3277311 8.91092437,11.6268908 8.91092437,14.2823529 C8.91092437,15.4789916 9.30756303,16.3260504 10.0840336,16.8067227 L10.312605,16.9478992 L10.312605,17.4655462 C10.312605,17.6436975 10.3495798,17.7647059 10.4268908,17.8319328 C10.5142857,17.912605 10.6621849,17.9495798 10.8571429,17.9495798 L12.8907563,17.9495798 C13.0285714,17.9495798 13.210084,17.9294118 13.3142857,17.8352941 C13.4084034,17.7512605 13.4252101,17.5865546 13.4252101,17.4655462 L13.4252101,16.9445378 L13.6504202,16.8067227 Z M12.0336134,10.3697479 C12.6521008,10.3831933 15.7848739,10.6386555 15.7848739,14.302521 C15.7848739,16.0201681 15.0689076,16.9613445 14.3831933,17.4689076 C14.3831933,18.0470588 14.1512605,18.3764706 13.9563025,18.5478992 C13.6941176,18.7865546 13.3344538,18.9109244 12.8907563,18.9109244 L10.8571429,18.9109244 C10.410084,18.9109244 10.0504202,18.7865546 9.78823529,18.5445378 C9.59663866,18.3764706 9.35798319,18.0436975 9.35798319,17.4722689 C8.67226891,16.9680672 7.95630252,16.0235294 7.95630252,14.2857143 C7.95630252,10.5747899 11.0621849,10.3697479 11.6840336,10.3663866 C11.8218487,10.3394958 11.9226891,10.3663866 12.0336134,10.3697479 L12.0336134,10.3697479 Z M11.3714286,15.210084 C11.2773109,15.3042017 11.1563025,15.3512605 11.0319328,15.3512605 C10.9109244,15.3512605 10.7865546,15.3042017 10.6957983,15.210084 L10.4168067,14.9310924 L10.1378151,15.210084 C10.0436975,15.3042017 9.92268908,15.3512605 9.79831933,15.3512605 C9.67731092,15.3512605 9.55294118,15.3042017 9.46218487,15.210084 C9.27731092,15.0218487 9.27731092,14.7193277 9.46218487,14.5310924 L9.74117647,14.2521008 L9.46218487,13.9731092 C9.27731092,13.7848739 9.27731092,13.4823529 9.46218487,13.2941176 C9.64705882,13.1058824 9.95294118,13.1058824 10.1378151,13.2941176 L10.4168067,13.5731092 L10.6957983,13.2941176 C10.8806723,13.1058824 11.1865546,13.1058824 11.3714286,13.2941176 C11.5563025,13.4823529 11.5563025,13.7848739 11.3714286,13.9731092 L11.092437,14.2521008 L11.3714286,14.5310924 C11.5596639,14.7193277 11.5596639,15.0218487 11.3714286,15.210084 Z M14.0336134,14.2521008 L14.312605,14.5310924 C14.497479,14.7193277 14.497479,15.0218487 14.312605,15.210084 C14.2184874,15.3042017 14.097479,15.3512605 13.9731092,15.3512605 C13.8521008,15.3512605 13.7277311,15.3042017 13.6369748,15.210084 L13.3579832,14.9310924 L13.0789916,15.210084 C12.9848739,15.3042017 12.8638655,15.3512605 12.7394958,15.3512605 C12.6184874,15.3512605 12.4941176,15.3042017 12.4033613,15.210084 C12.2184874,15.0218487 12.2184874,14.7193277 12.4033613,14.5310924 L12.6823529,14.2521008 L12.4033613,13.9731092 C12.2184874,13.7848739 12.2184874,13.4823529 12.4033613,13.2941176 C12.5882353,13.1058824 12.8941176,13.1058824 13.0789916,13.2941176 L13.3579832,13.5731092 L13.6369748,13.2941176 C13.8218487,13.1058824 14.1277311,13.1058824 14.312605,13.2941176 C14.497479,13.4823529 14.497479,13.7848739 14.312605,13.9731092 L14.0336134,14.2521008 Z M12.5579832,15.8991597 L12.702521,16.2386555 C12.8067227,16.4840336 12.692437,16.7630252 12.4504202,16.8672269 C12.389916,16.8941176 12.3260504,16.9042017 12.2621849,16.9042017 C12.0907563,16.9042017 11.9327731,16.8033613 11.8487395,16.6420168 C11.7647059,16.8033613 11.6067227,16.9042017 11.4352941,16.9042017 C11.3747899,16.9042017 11.307563,16.8907563 11.2504202,16.8672269 C11.0084034,16.7630252 10.8941176,16.4806723 10.9983193,16.2386555 L11.1428571,15.8991597 C11.2436975,15.6537815 11.5294118,15.5394958 11.7680672,15.6436975 C11.8016807,15.6571429 11.8252101,15.6806723 11.8521008,15.7008403 C11.8789916,15.6806723 11.902521,15.6571429 11.9361345,15.6436975 C12.1747899,15.5394958 12.4571429,15.6571429 12.5579832,15.8991597 Z" id="Veneno-_2Regular"></path>
        </g>
    </g>
</svg>

<svg width="24" height="24" viewBox="0 0 24 24" xmlns="http://www.w3.org/2000/svg"><path d="M15.227 22.185c1.445 0 2.376-.538 2.807-1.577H5.72c.131.32.303.599.528.82.52.505 1.29.76 2.296.76h6.682v-.003zm-7.7-20.48v3.508c0 .148.117.27.265.27h8.09a.267.267 0 00.266-.27V1.704a.264.264 0 00-.266-.265h-8.09a.268.268 0 00-.266.265zm10.702 6.907c-.189-.955-.69-1.6-1.5-1.923a1.686 1.686 0 01-.847.235h-8.09c-.286 0-.555-.077-.79-.205a2.502 2.502 0 00-.75.468c-.363.35-.595.837-.716 1.425H18.23zM5.439 19.059c0 .037.006.07.006.11h12.858c0-.036.006-.07.006-.107l.01-9.008H5.44v9.005zm12.12-13.587c1.423.7 2.196 2.121 2.196 4.078l-.01 9.509c0 2.857-1.691 4.565-4.518 4.565h-6.68c-1.39 0-2.497-.39-3.293-1.163-.827-.804-1.247-1.947-1.247-3.402v-9.51c0-1.455.42-2.598 1.257-3.401a3.74 3.74 0 01.864-.609 1.694 1.694 0 01-.034-.322v-3.51c0-.94.763-1.704 1.701-1.704h8.09c.939 0 1.702.767 1.702 1.705v3.509c0 .087-.014.171-.027.255zm-8.793-.655a.717.717 0 01-.716-.72v-1.25a.72.72 0 01.716-.72.72.72 0 01.716.72v1.25a.715.715 0 01-.716.72zm2.05 0a.717.717 0 01-.715-.72v-1.25a.72.72 0 01.716-.72c.396 0 .716.323.716.72v1.25c0 .397-.32.72-.716.72zm2.048 0a.717.717 0 01-.716-.72v-1.25a.72.72 0 01.716-.72.72.72 0 01.716.72v1.25a.715.715 0 01-.716.72zm2.047 0a.717.717 0 01-.716-.72v-1.25a.72.72 0 01.716-.72c.397 0 .716.323.716.72v1.25a.715.715 0 01-.716.72zm-1.26 11.99c.78-.484 1.176-1.328 1.176-2.504 0-2.626-1.977-2.955-2.824-2.975-.097-.004-.201-.004-.299-.004h-.017c-.833.004-2.776.303-2.776 2.958 0 1.197.397 2.044 1.173 2.525l.229.14v.519c0 .178.037.299.114.366.087.08.235.118.43.118h2.034c.138 0 .32-.02.423-.115.094-.084.111-.248.111-.37v-.52l.225-.138zm-1.617-6.437c.618.013 3.75.269 3.75 3.933 0 1.717-.715 2.658-1.4 3.166 0 .578-.233.907-.428 1.079-.262.239-.622.363-1.065.363h-2.034c-.447 0-.807-.124-1.069-.366-.191-.169-.43-.501-.43-1.073-.686-.504-1.402-1.448-1.402-3.186 0-3.711 3.106-3.916 3.728-3.92.138-.027.239 0 .35.004zm-.663 4.84a.476.476 0 01-.675 0l-.28-.279-.278.28a.476.476 0 01-.676 0 .485.485 0 010-.68l.28-.279-.28-.279a.485.485 0 010-.679.475.475 0 01.676 0l.279.28.279-.28a.475.475 0 01.675 0 .485.485 0 010 .68l-.279.278.28.28a.479.479 0 010 .678zm2.663-.958l.279.28a.485.485 0 010 .678.476.476 0 01-.676 0l-.279-.279-.279.28a.476.476 0 01-.676 0 .485.485 0 010-.68l.28-.279-.28-.279a.485.485 0 010-.679.475.475 0 01.676 0l.279.28.279-.28a.475.475 0 01.676 0 .485.485 0 010 .68l-.28.278zM12.558 15.9l.145.34a.479.479 0 01-.44.665.47.47 0 01-.414-.262.47.47 0 01-.414.262.48.48 0 01-.437-.666l.145-.339c.1-.245.386-.36.625-.255.034.013.057.037.084.057.027-.02.05-.044.084-.057a.474.474 0 01.622.255z" fill="#5CB615" fill-rule="nonzero"/></svg>
